file/colgate.svg

<svg clip-rule="evenodd" fill-rule="evenodd" stroke-miterlimit="1.41421" viewBox="0 0 560 400" xmlns="http://www.w3.org/2000/svg"><g transform="matrix(2.08928 0 0 2.08928 78.6413 -1.87164)"><path d="m8.503 75.084h175.748l-13.847 43.077h-161.901z" fill="#ed1c24"/><path d="m8.503 75.084h175.748l-13.847 43.077h-161.901z" fill="none" stroke="#ed1c24" stroke-width=".61"/><path d="m39.794 105.531c-.32-3.112-.213-1.789-.534-4.079-25.915 6.87-12.459-24.221 5.482-16.457.214-.108-.178-.108 3.311-3.542-28.336-11.628-47.239 33.023-8.259 24.078z" fill="#fff"/><path d="m40.293 98.197c.569-5.796 7.191-10.662 13.028-10.662 8.224 0 11.534 3.792 10.68 8.408-1.139 6.118-6.728 10.733-14.061 10.626-5.839-.072-10.181-2.684-9.647-8.372z" fill="#fff"/><path d="m47.234 96.623c.926-3.65 4.628-6.19 7.12-5.904 2.919 0 3.951 2.361 2.599 7.227-.784 3.22-4.343 5.975-7.334 5.403-2.954-1.288-3.31-2.648-2.385-6.726z" fill="#ed1c24"/><path d="m93.547 87.535-.534 1.109c-18.119-9.159-31.931 26.762-5.197 15.921.071.394-6.016 9.625-17.906 4.473l-1.922 3.756c25.773 5.224 25.809-9.052 31.682-25.152-4.805 0-6.123-.107-6.123-.107z" fill="#fff"/><path d="m79.486 99.664c.249-3.542 4.308-7.871 6.301-8.301 2.029-.429 4.628-.966 5.98.644-1.708 8.05-6.122 11.091-9.184 10.984-2.1 0-2.883-.608-3.097-3.327z" fill="#ed1c24"/><path d="m102.589 92.043 1.567-4.15c17.906-3.435 22.498.357 16.09 12.272-1.068 2.826-1.317 3.649-.997 6.332-4.022 0-6.906.036-6.906.036v-1.359s-15.663 6.118-14.631-4.115c1.033-10.018 15.628-6.583 18.939-7.621.462-5.402-14.062-1.395-14.062-1.395z" fill="#fff"/><path d="m114.8 97.267c-16.447-1.503-11.784 9.803-1.247 4.043.926-2.541.962-3.328 1.247-4.043z" fill="#ed1c24"/><path d="m126.12 90.183h-2.848l1.068-3.113h3.026l1.744-4.472 6.906-1.217-2.029 5.653h6.835l-1.175 3.113-6.835.036s-4.022 9.481-4.022 9.803-2.136 4.866 4.734 2.218c.107 2.648.249 3.184.249 3.184s-16.126 5.474-11.178-6.547c3.169-7.692 3.525-8.658 3.525-8.658z" fill="#fff"/><path d="m144.524 97.123c5.411 0 10.715-.107 14.488-.107.499-1.646 3.703-12.307-10.109-10.662-14.703 1.789-17.337 27.871 8.543 18.104-1.353-2.791-1.566-3.22-1.566-3.22s-11.356 5.653-11.356-4.115z" fill="#fff"/><path d="m153.637 93.76c2.136-3.649-4.414-7.477-7.938 0z" fill="#ed1c24"/><g fill="#fff"><path d="m71.69 81.131h6.301l-9.256 25.509h-6.158z"/><path d="m165.349 84.279c.569 0 1.068.143 1.602.394.498.286.925.679 1.21 1.216s.427 1.073.427 1.61c0 .573-.142 1.109-.427 1.646-.285.501-.676.894-1.21 1.181-.499.286-1.033.429-1.602.429-.534 0-1.068-.143-1.602-.429-.499-.287-.89-.68-1.175-1.181-.284-.537-.427-1.073-.427-1.646 0-.537.143-1.073.427-1.61.285-.537.676-.93 1.21-1.216.499-.251 1.033-.394 1.567-.394zm0 .537c-.427 0-.89.107-1.317.357-.428.215-.748.537-.997 1.002-.249.43-.356.859-.356 1.324 0 .501.107.93.356 1.36.213.429.569.751.997 1.001.427.251.854.358 1.317.358s.925-.107 1.353-.358c.427-.25.747-.572.996-1.001.249-.43.356-.859.356-1.36 0-.465-.107-.894-.356-1.324-.249-.465-.569-.787-1.032-1.002-.427-.25-.854-.357-1.317-.357zm-1.424 4.508v-3.507h1.21c.427 0 .712.036.89.108.178.071.321.179.427.322.107.179.178.322.178.501 0 .286-.106.501-.284.68-.178.178-.428.286-.712.322.106.035.213.107.284.178.143.144.321.358.534.68l.392.716h-.676l-.285-.573c-.249-.429-.463-.679-.605-.823-.107-.071-.249-.107-.463-.107h-.32v1.503zm.57-1.968h.676c.356 0 .569-.072.676-.143.107-.107.178-.251.178-.394 0-.107-.035-.214-.071-.286-.071-.072-.142-.143-.249-.179s-.285-.071-.57-.071h-.64z"/></g></g></svg>

<?xml version="1.0" encoding="UTF-8" standalone="no"?>
<!DOCTYPE svg PUBLIC "-//W3C//DTD SVG 1.1//EN" "http://www.w3.org/Graphics/SVG/1.1/DTD/svg11.dtd">
<svg width="100%" height="100%" viewBox="0 0 560 400" version="1.1" xmlns="http://www.w3.org/2000/svg" xmlns:xlink="http://www.w3.org/1999/xlink" xml:space="preserve" xmlns:serif="http://www.serif.com/" style="fill-rule:evenodd;clip-rule:evenodd;stroke-miterlimit:1.41421;">
    <g transform="matrix(2.08928,0,0,2.08928,78.6413,-1.87164)">
        <path d="M8.503,75.084L184.251,75.084L170.404,118.161L8.503,118.161L8.503,75.084Z" style="fill:rgb(237,28,36);"/>
        <path d="M8.503,75.084L184.251,75.084L170.404,118.161L8.503,118.161L8.503,75.084Z" style="fill:none;stroke:rgb(237,28,36);stroke-width:0.61px;"/>
        <path d="M39.794,105.531C39.474,102.419 39.581,103.742 39.26,101.452C13.345,108.322 26.801,77.231 44.742,84.995C44.956,84.887 44.564,84.887 48.053,81.453C19.717,69.825 0.814,114.476 39.794,105.531Z" style="fill:white;"/>
        <path d="M40.293,98.197C40.862,92.401 47.484,87.535 53.321,87.535C61.545,87.535 64.855,91.327 64.001,95.943C62.862,102.061 57.273,106.676 49.94,106.569C44.101,106.497 39.759,103.885 40.293,98.197Z" style="fill:white;"/>
        <path d="M47.234,96.623C48.16,92.973 51.862,90.433 54.354,90.719C57.273,90.719 58.305,93.08 56.953,97.946C56.169,101.166 52.61,103.921 49.619,103.349C46.665,102.061 46.309,100.701 47.234,96.623Z" style="fill:rgb(237,28,36);"/>
        <path d="M93.547,87.535L93.013,88.644C74.894,79.485 61.082,115.406 87.816,104.565C87.887,104.959 81.8,114.19 69.91,109.038L67.988,112.794C93.761,118.018 93.797,103.742 99.67,87.642C94.865,87.642 93.547,87.535 93.547,87.535Z" style="fill:white;"/>
        <path d="M79.486,99.664C79.735,96.122 83.794,91.793 85.787,91.363C87.816,90.934 90.415,90.397 91.767,92.007C90.059,100.057 85.645,103.098 82.583,102.991C80.483,102.991 79.7,102.383 79.486,99.664Z" style="fill:rgb(237,28,36);"/>
        <path d="M102.589,92.043L104.156,87.893C122.062,84.458 126.654,88.25 120.246,100.165C119.178,102.991 118.929,103.814 119.249,106.497C115.227,106.497 112.343,106.533 112.343,106.533L112.343,105.174C112.343,105.174 96.68,111.292 97.712,101.059C98.745,91.041 113.34,94.476 116.651,93.438C117.113,88.036 102.589,92.043 102.589,92.043Z" style="fill:white;"/>
        <path d="M114.8,97.267C98.353,95.764 103.016,107.07 113.553,101.31C114.479,98.769 114.515,97.982 114.8,97.267Z" style="fill:rgb(237,28,36);"/>
        <path d="M126.12,90.183L123.272,90.183L124.34,87.07L127.366,87.07L129.11,82.598L136.016,81.381L133.987,87.034L140.822,87.034L139.647,90.147L132.812,90.183C132.812,90.183 128.79,99.664 128.79,99.986C128.79,100.308 126.654,104.852 133.524,102.204C133.631,104.852 133.773,105.388 133.773,105.388C133.773,105.388 117.647,110.862 122.595,98.841C125.764,91.149 126.12,90.183 126.12,90.183Z" style="fill:white;"/>
        <path d="M144.524,97.123C149.935,97.123 155.239,97.016 159.012,97.016C159.511,95.37 162.715,84.709 148.903,86.354C134.2,88.143 131.566,114.225 157.446,104.458C156.093,101.667 155.88,101.238 155.88,101.238C155.88,101.238 144.524,106.891 144.524,97.123Z" style="fill:white;"/>
        <path d="M153.637,93.76C155.773,90.111 149.223,86.283 145.699,93.76L153.637,93.76Z" style="fill:rgb(237,28,36);"/>
        <path d="M71.69,81.131L77.991,81.131L68.735,106.64L62.577,106.64L71.69,81.131Z" style="fill:white;"/>
        <path d="M165.349,84.279C165.918,84.279 166.417,84.422 166.951,84.673C167.449,84.959 167.876,85.352 168.161,85.889C168.446,86.426 168.588,86.962 168.588,87.499C168.588,88.072 168.446,88.608 168.161,89.145C167.876,89.646 167.485,90.039 166.951,90.326C166.452,90.612 165.918,90.755 165.349,90.755C164.815,90.755 164.281,90.612 163.747,90.326C163.248,90.039 162.857,89.646 162.572,89.145C162.288,88.608 162.145,88.072 162.145,87.499C162.145,86.962 162.288,86.426 162.572,85.889C162.857,85.352 163.248,84.959 163.782,84.673C164.281,84.422 164.815,84.279 165.349,84.279ZM165.349,84.816C164.922,84.816 164.459,84.923 164.032,85.173C163.604,85.388 163.284,85.71 163.035,86.175C162.786,86.605 162.679,87.034 162.679,87.499C162.679,88 162.786,88.429 163.035,88.859C163.248,89.288 163.604,89.61 164.032,89.86C164.459,90.111 164.886,90.218 165.349,90.218C165.812,90.218 166.274,90.111 166.702,89.86C167.129,89.61 167.449,89.288 167.698,88.859C167.947,88.429 168.054,88 168.054,87.499C168.054,87.034 167.947,86.605 167.698,86.175C167.449,85.71 167.129,85.388 166.666,85.173C166.239,84.923 165.812,84.816 165.349,84.816ZM163.925,89.324L163.925,85.817L165.135,85.817C165.562,85.817 165.847,85.853 166.025,85.925C166.203,85.996 166.346,86.104 166.452,86.247C166.559,86.426 166.63,86.569 166.63,86.748C166.63,87.034 166.524,87.249 166.346,87.428C166.168,87.606 165.918,87.714 165.634,87.75C165.74,87.785 165.847,87.857 165.918,87.928C166.061,88.072 166.239,88.286 166.452,88.608L166.844,89.324L166.168,89.324L165.883,88.751C165.634,88.322 165.42,88.072 165.278,87.928C165.171,87.857 165.029,87.821 164.815,87.821L164.495,87.821L164.495,89.324L163.925,89.324ZM164.495,87.356L165.171,87.356C165.527,87.356 165.74,87.284 165.847,87.213C165.954,87.106 166.025,86.962 166.025,86.819C166.025,86.712 165.99,86.605 165.954,86.533C165.883,86.461 165.812,86.39 165.705,86.354C165.598,86.318 165.42,86.283 165.135,86.283L164.495,86.283L164.495,87.356Z" style="fill:white;"/>
    </g>
</svg>
